packages/foundations/assets/icons/functional/images/file/document_check_24.svg

<svg width="24" height="24" viewBox="0 0 24 24" fill="none" xmlns="http://www.w3.org/2000/svg">
<g clip-path="url(#clip0_185_906)">
<path fill-rule="evenodd" clip-rule="evenodd" d="M10.9999 2C11.2809 2 11.5309 2.094 11.7189 2.313L15.7189 6.313C15.9069 6.5 15.9999 6.719 15.9999 7V8C15.9999 8.552 15.5519 9 14.9999 9H9.99988C9.43788 9 8.99988 8.531 8.99988 8V4H3.99988V20H9.00018C9.55218 20 10.0002 20.448 10.0002 21C10.0002 21.552 9.55218 22 9.00018 22H2.99988C2.43788 22 1.99988 21.563 1.99988 21V3C1.99988 2.438 2.43788 2 2.99988 2H10.9999ZM16.0002 10C19.3075 10 22.0002 12.6726 22.0002 15.9927C22.0002 19.3041 19.3075 22 16.0002 22C12.6928 22 10.0002 19.3041 10.0002 15.9927C10.0002 12.6959 12.6928 10 16.0002 10ZM18.7943 13.3854L14.8763 17.3034L13.2074 15.6382L12.0523 16.7622L14.8963 19.543L19.9495 14.5249L18.7943 13.3854ZM6.99988 16C7.55188 16 7.99988 16.448 7.99988 17C7.99988 17.552 7.55188 18 6.99988 18C6.44788 18 5.99988 17.552 5.99988 17C5.99988 16.448 6.44788 16 6.99988 16ZM7.99988 12C8.56288 12 8.99988 12.437 8.99988 13C8.99988 13.562 8.56288 14 7.99988 14H6.99988C6.43788 14 5.99988 13.562 5.99988 13C5.99988 12.437 6.43788 12 6.99988 12H7.99988ZM10.9999 4.406V7H13.5939L10.9999 4.406Z" fill="#1A1C1F"/>
</g>
<defs>
<clipPath id="clip0_185_906">
<rect width="24" height="24" fill="white"/>
</clipPath>
</defs>
</svg>

<svg xmlns="http://www.w3.org/2000/svg" width="24" height="24" fill="none"><g clip-path="url(#a)"><path fill="#1A1C1F" fill-rule="evenodd" d="M11 2c.28 0 .53.094.719.313l4 4a.92.92 0 0 1 .28.687v1a1 1 0 0 1-1 1h-5c-.561 0-1-.469-1-1V4H4v16H9a1 1 0 0 1 0 2H3c-.562 0-1-.437-1-1V3c0-.562.438-1 1-1zm5 8c3.308 0 6 2.673 6 5.993C22 19.304 19.308 22 16 22s-6-2.696-6-6.007C10 12.696 12.693 10 16 10m2.794 3.385-3.918 3.918-1.669-1.665-1.155 1.124 2.844 2.781 5.054-5.018zM7 16a1 1 0 1 1 0 2 1 1 0 0 1 0-2m1-4c.563 0 1 .437 1 1s-.437 1-1 1H7c-.562 0-1-.438-1-1s.438-1 1-1zm3-7.594V7h2.594z" clip-rule="evenodd"/></g><defs><clipPath id="a"><path fill="#fff" d="M0 0h24v24H0z"/></clipPath></defs></svg>
